X:75
T:Heather on the Hill
B:Terry "Cuz" Teahan "Sliabh Luachra on Parade" 1980
Z:Patrick Cavanagh
M:2/4
L:1/8
R:Polka
K:A
| E2 EF | AF AB | ce B/c/B | AF FA | 
E2 EF | AF AB | ce B/c/B | A2 A2 :| 
| ce ec | df fe | c2 B/c/B | AF FA | 
[1 ce ec | df fe | c2 B/c/B | A2 A2 :| 
[2 E2 EF | AF AB | ce B/c/B | A2 A2 || 

